src/images/pages/dmt5_signals/automated_copy_trade.svg

<svg width="64" height="71" viewBox="0 0 64 71" fill="none" xmlns="http://www.w3.org/2000/svg">
<path d="M37.17 50.5806H15.1313C13.619 50.5806 12.3872 49.3488 12.3872 47.8348V17.1957C12.3872 15.6834 13.619 14.4516 15.1313 14.4516H30.4517C30.9266 14.4516 31.3119 14.837 31.3119 15.3118V23.0538H39.0539C39.5287 23.0538 39.9141 23.4391 39.9141 23.914V47.8348C39.9141 49.3488 38.6823 50.5806 37.17 50.5806ZM15.1313 16.172C14.567 16.172 14.1076 16.6314 14.1076 17.1957V47.8366C14.1076 48.3991 14.567 48.8602 15.1313 48.8602H37.17C37.7343 48.8602 38.1937 48.3991 38.1937 47.8348V24.7742H30.4517C29.9769 24.7742 29.5915 24.3888 29.5915 23.914V16.172H15.1313Z" fill="#2A3052"/>
<path d="M39.0539 24.7742C38.8336 24.7742 38.6134 24.6899 38.4448 24.523L29.8427 15.9208C29.5072 15.5854 29.5072 15.04 29.8427 14.7045C30.1782 14.369 30.7235 14.369 31.059 14.7045L39.6612 23.3066C39.9967 23.6421 39.9967 24.1875 39.6612 24.523C39.4943 24.6899 39.2741 24.7742 39.0539 24.7742Z" fill="#2A3052"/>
<path d="M51.3567 55.7419H28.4715C27.1915 55.7419 26.1506 54.7011 26.1506 53.4211C26.1506 52.9462 26.536 52.5609 27.0108 52.5609C27.4857 52.5609 27.8711 52.9462 27.8711 53.4211C27.8711 53.7531 28.1412 54.0215 28.4715 54.0215H51.3567C51.687 54.0215 51.9571 53.7531 51.9571 53.4211V21.9338C51.9571 21.6017 51.687 21.3333 51.3567 21.3333H43.3481C42.8732 21.3333 42.4878 20.948 42.4878 20.4731C42.4878 19.9983 42.8732 19.6129 43.3481 19.6129H51.3567C52.6367 19.6129 53.6775 20.6538 53.6775 21.9338V53.4228C53.6775 54.7011 52.6367 55.7419 51.3567 55.7419Z" fill="#2A3052"/>
<path fill-rule="evenodd" clip-rule="evenodd" d="M22.3763 30.6487H21.642V27.0487C21.642 26.7428 21.3974 26.4947 21.0957 26.4947C20.794 26.4947 20.5493 26.7428 20.5493 27.0487V30.6487H19.8154C19.5137 30.6487 19.269 30.8967 19.269 31.2027V39.2082C19.269 39.5142 19.5137 39.7622 19.8154 39.7622H20.5493V45.0392C20.5493 45.3452 20.794 45.5933 21.0957 45.5933C21.3974 45.5933 21.642 45.3452 21.642 45.0392V39.7622H22.3763C22.678 39.7622 22.9226 39.5142 22.9226 39.2082V31.2027C22.9226 30.8967 22.678 30.6487 22.3763 30.6487ZM21.105 31.7567L21.0957 31.7568L21.0864 31.7567H20.3617V38.6542H21.83V31.7567H21.105ZM29.6392 29.6109H28.9047C28.603 29.6109 28.3584 29.8589 28.3584 30.1649V36.2063C28.3584 36.5122 28.603 36.7603 28.9047 36.7603H29.6392V44.2311C29.6392 44.5371 29.8838 44.7851 30.1855 44.7851C30.4872 44.7851 30.7318 44.5371 30.7318 44.2311V36.7603H31.4656C31.7673 36.7603 32.012 36.5122 32.012 36.2063V30.1649C32.012 29.8589 31.7673 29.6109 31.4656 29.6109H30.7318V27.2495C30.7318 26.9436 30.4872 26.6955 30.1855 26.6955C29.8838 26.6955 29.6392 26.9436 29.6392 27.2495V29.6109ZM30.1737 30.7189H29.451V35.6523H30.1779L30.1855 35.6522L30.1931 35.6523H30.9193V30.7189H30.1973C30.1933 30.719 30.1894 30.719 30.1855 30.719C30.1815 30.719 30.1776 30.719 30.1737 30.7189ZM26.187 34.8248H26.9212C27.2229 34.8248 27.4675 35.0728 27.4675 35.3788V41.2098C27.4675 41.5157 27.2229 41.7638 26.9212 41.7638H26.187V44.1253C26.187 44.4312 25.9424 44.6793 25.6407 44.6793C25.339 44.6793 25.0944 44.4312 25.0944 44.1253V41.7638H24.3603C24.0586 41.7638 23.814 41.5157 23.814 41.2098V35.3788C23.814 35.0728 24.0586 34.8248 24.3603 34.8248H25.0944V29.2014C25.0944 28.8955 25.339 28.6474 25.6407 28.6474C25.9424 28.6474 26.187 28.8955 26.187 29.2014V34.8248ZM26.3749 40.6557H25.6444L25.6407 40.6557L25.637 40.6557H24.9066V35.9328H26.3749V40.6557Z" fill="#2A3052"/>
<path fill-rule="evenodd" clip-rule="evenodd" d="M46.2155 33.0518H46.9493C47.251 33.0518 47.4956 33.2999 47.4956 33.6059V39.6472C47.4956 39.9532 47.251 40.2013 46.9493 40.2013H46.2155V47.6721C46.2155 47.978 45.9708 48.2261 45.6691 48.2261C45.3674 48.2261 45.1228 47.978 45.1228 47.6721V40.2013H44.3884C44.0867 40.2013 43.842 39.9532 43.842 39.6472V33.6059C43.842 33.2999 44.0867 33.0518 44.3884 33.0518H45.1228V30.6903C45.1228 30.3844 45.3674 30.1363 45.6691 30.1363C45.9708 30.1363 46.2155 30.3844 46.2155 30.6903V33.0518ZM41.6707 38.2656H42.4049C42.7066 38.2656 42.9512 38.5137 42.9512 38.8196V44.6506C42.9512 44.9566 42.7066 45.2046 42.4049 45.2046H41.6707V47.5662C41.6707 47.8722 41.426 48.1203 41.1243 48.1203C40.8226 48.1203 40.578 47.8722 40.578 47.5662V45.2046H39.8439C39.5422 45.2046 39.2976 44.9566 39.2976 44.6506V38.8196C39.2976 38.5137 39.5422 38.2656 39.8439 38.2656H40.578V32.6422C40.578 32.3363 40.8226 32.0882 41.1243 32.0882C41.426 32.0882 41.6707 32.3363 41.6707 32.6422V38.2656ZM45.6691 39.0932L45.6768 39.0932H46.403V34.1599H44.9347V39.0932H45.6615L45.6691 39.0932ZM40.3903 39.3737H41.8585V44.0966H40.3903V39.3737Z" fill="#2A3052"/>
<path d="M21.7634 0C21.2408 0 20.8171 0.431347 20.8171 0.96346V4.48288C15.9455 -0.31929 8.17298 -0.191145 3.45658 4.76898C1.23386 7.10658 -0.00613141 10.2345 2.27989e-05 13.4882C2.27989e-05 14.0203 0.423665 14.4516 0.946274 14.4516C1.46888 14.4516 1.89247 14.0203 1.89247 13.4882C1.89363 7.63514 6.55459 2.89123 12.3031 2.89241C15.2226 2.89298 18.0076 4.14197 19.9788 6.33461L15.787 7.75758C15.2906 7.92575 15.022 8.47181 15.1871 8.97727C15.3523 9.48274 15.8886 9.75625 16.385 9.58808L22.0624 7.66122C22.45 7.5298 22.7109 7.15993 22.7097 6.74405V0.963403C22.7096 0.431347 22.286 0 21.7634 0Z" fill="#2A3052"/>
<path d="M42.2366 70.1935C42.7592 70.1935 43.1829 69.7622 43.1829 69.2301L43.1829 65.7107C48.0545 70.5128 55.827 70.3847 60.5434 65.4246C62.7661 63.087 64.0061 59.959 64 56.7054C64 56.1733 63.5763 55.7419 63.0537 55.7419C62.5311 55.7419 62.1075 56.1733 62.1075 56.7054C62.1064 62.5584 57.4454 67.3023 51.6969 67.3011C48.7774 67.3006 45.9924 66.0516 44.0212 63.8589L48.213 62.436C48.7094 62.2678 48.978 61.7217 48.8129 61.2163C48.6477 60.7108 48.1114 60.4373 47.615 60.6055L41.9376 62.5323C41.55 62.6637 41.2891 63.0336 41.2903 63.4495L41.2903 69.2301C41.2904 69.7622 41.714 70.1935 42.2366 70.1935Z" fill="#2A3052"/>
</svg>

<svg width="64" height="71" fill="none" xmlns="http://www.w3.org/2000/svg"><path d="M37.17 50.58H15.131a2.749 2.749 0 01-2.744-2.745v-30.64a2.748 2.748 0 012.744-2.743h15.32a.86.86 0 01.86.86v7.742h7.743a.86.86 0 01.86.86v23.92a2.749 2.749 0 01-2.744 2.747zM15.131 16.173c-.564 0-1.023.46-1.023 1.024v30.64c0 .563.459 1.024 1.023 1.024H37.17c.564 0 1.024-.46 1.024-1.025v-23.06h-7.742a.86.86 0 01-.86-.861v-7.742h-14.46z" fill="#2A3052"/><path d="M39.054 24.774a.864.864 0 01-.61-.251l-8.601-8.602a.86.86 0 011.216-1.216l8.602 8.602a.86.86 0 01-.607 1.467zM51.357 55.742H28.47c-1.28 0-2.32-1.04-2.32-2.32a.86.86 0 011.72 0c0 .331.27.6.6.6h22.886c.33 0 .6-.269.6-.6V21.933c0-.332-.27-.6-.6-.6h-8.009a.86.86 0 010-1.721h8.009c1.28 0 2.32 1.04 2.32 2.32v31.49c0 1.278-1.04 2.319-2.32 2.319z" fill="#2A3052"/><path fill-rule="evenodd" clip-rule="evenodd" d="M22.376 30.649h-.734v-3.6a.55.55 0 00-.546-.554.55.55 0 00-.547.554v3.6h-.734a.55.55 0 00-.546.554v8.005a.55.55 0 00.546.554h.734v5.277a.55.55 0 00.547.554.55.55 0 00.546-.554v-5.277h.734a.55.55 0 00.547-.554v-8.005a.55.55 0 00-.547-.554zm-1.271 1.108h-.743v6.897h1.468v-6.897h-.725zm8.534-2.146h-.734a.55.55 0 00-.547.554v6.041a.55.55 0 00.547.554h.734v7.471a.55.55 0 00.547.554.55.55 0 00.546-.554v-7.47h.734a.55.55 0 00.546-.555v-6.041a.55.55 0 00-.546-.554h-.734V27.25a.55.55 0 00-.546-.555.55.55 0 00-.547.555v2.36zm.535 1.108h-.723v4.933h1.468V30.72h-.745zm-3.987 4.106h.734a.55.55 0 01.547.554v5.83a.55.55 0 01-.547.555h-.734v2.361a.55.55 0 01-.546.554.55.55 0 01-.547-.554v-2.361h-.734a.55.55 0 01-.546-.554v-5.831a.55.55 0 01.546-.554h.734V29.2a.55.55 0 01.547-.554.55.55 0 01.546.554v5.624zm.188 5.83h-1.468v-4.722h1.468v4.723zM46.215 33.052h.734a.55.55 0 01.547.554v6.041a.55.55 0 01-.547.554h-.733v7.471a.55.55 0 01-.547.554.55.55 0 01-.546-.554v-7.47h-.735a.55.55 0 01-.546-.555v-6.041a.55.55 0 01.546-.554h.735V30.69a.55.55 0 01.546-.554.55.55 0 01.547.554v2.362zm-4.544 5.214h.734a.55.55 0 01.546.554v5.83a.55.55 0 01-.546.555h-.734v2.361a.55.55 0 01-.547.554.55.55 0 01-.546-.554v-2.361h-.734a.55.55 0 01-.546-.554V38.82a.55.55 0 01.546-.554h.734v-5.624a.55.55 0 01.546-.554.55.55 0 01.547.554v5.624zm3.998.827h.734V34.16h-1.468v4.933h.734zm-5.279.28h1.468v4.724H40.39v-4.723z" fill="#2A3052"/><path d="M21.763 0a.955.955 0 00-.946.963v3.52a12.123 12.123 0 00-17.36.286A12.621 12.621 0 000 13.489c0 .531.424.963.946.963a.955.955 0 00.946-.964C1.894 7.635 6.555 2.891 12.303 2.892c2.92.001 5.705 1.25 7.676 3.443l-4.192 1.423a.969.969 0 00-.6 1.22.944.944 0 001.198.61l5.677-1.927a.962.962 0 00.648-.917V.964A.955.955 0 0021.763 0zM42.237 70.194a.955.955 0 00.946-.964v-3.52a12.123 12.123 0 0017.36-.285A12.622 12.622 0 0064 56.705a.955.955 0 00-.946-.963.955.955 0 00-.947.963c0 5.853-4.662 10.597-10.41 10.596-2.92 0-5.705-1.25-7.676-3.442l4.192-1.423a.969.969 0 00.6-1.22.944.944 0 00-1.198-.61l-5.677 1.926a.962.962 0 00-.648.918v5.78c0 .532.424.963.947.963z" fill="#2A3052"/></svg>
